X: 162
T:Niguno Shel Yossi
C:Yosi Spivak 1959
D: Debka Israeli Folk Dances (Tikva Records T-100)
O: Israel
I: choreographer R. Spivak, 1960
F: http://www.youtube.com/watch?v=t7YrlTUhP4U
F: http://www.youtube.com/watch?v=AmFsq-vL53g
F: http://www.youtube.com/watch?v=eVZGdJF0DIY
M:2/4
L:1/8
Q:1/4=120
K:Am
  d             |"Dm" dc BA  |"Am" cB A^G    |"Dm" BA ^GF|"Em" E2 z2\
|:"E7" BB ^Gz   |"Am" AA ^GF | EE F/2E/2D    |
  E2 z2         |"E7" BB ^Gz | "Am" AA dc    |"E7" BA ^GA| B2 z2  :|\
|:"Am" A2 c2    |"Dm" dc Bz  |
  "Am" A2 c2    |"Dm" dc Bz  | dc BA         |"Am" cB A^G|\
  [1 "Dm" BA ^GA|"Em" B2 z2  :|[2 "Em" BA ^GF|"Em" E2 z2 |



